src/dsmComponents/Icons/user-profile-16px.svg

<svg width="16" height="16" xmlns="http://www.w3.org/2000/svg" xmlns:xlink="http://www.w3.org/1999/xlink"><defs><path d="M8 10a3 3 0 100-6 3 3 0 000 6zM8 0C3.6 0 0 3.6 0 8s3.6 8 8 8 8-3.6 8-8-3.6-8-8-8zm4 12.4c-.6-.7-1.4-1.4-3-1.4H7c-1.6 0-2.4.7-3 1.4C2.8 11.3 2 9.8 2 8c0-3.3 2.7-6 6-6s6 2.7 6 6c0 1.8-.8 3.3-2 4.4z" id="user-profile-16px_svg__a"/></defs><use fill="#737373" xlink:href="#user-profile-16px_svg__a" fill-rule="evenodd"/></svg>

<?xml version="1.0" encoding="UTF-8"?>
<svg width="16px" height="16px" viewBox="0 0 16 16" version="1.1" xmlns="http://www.w3.org/2000/svg" xmlns:xlink="http://www.w3.org/1999/xlink">
    <!-- Generator: Sketch 59.1 (86144) - https://sketch.com -->
    <title>user-profile-16px</title>
    <desc>Created with Sketch.</desc>
    <defs>
        <path d="M8,10 C9.65685425,10 11,8.65685425 11,7 C11,5.34314575 9.65685425,4 8,4 C6.34314575,4 5,5.34314575 5,7 C5,8.65685425 6.34314575,10 8,10 Z M8,0 C3.6,0 0,3.6 0,8 C0,12.4 3.6,16 8,16 C12.4,16 16,12.4 16,8 C16,3.6 12.4,0 8,0 Z M12,12.4 C11.4,11.7 10.6,11 9,11 L7,11 C5.4,11 4.6,11.7 4,12.4 C2.8,11.3 2,9.8 2,8 C2,4.7 4.7,2 8,2 C11.3,2 14,4.7 14,8 C14,9.8 13.2,11.3 12,12.4 Z" id="path-1"></path>
    </defs>
    <g id="Final" stroke="none" stroke-width="1" fill="none" fill-rule="evenodd">
        <g id="All-Nucleo-Icons" transform="translate(-319.000000, -6934.000000)">
            <g id="Solo/Nucleo/16px/user-profile" transform="translate(315.000000, 6930.000000)">
                <g id="circle-08" transform="translate(4.000000, 4.000000)">
                    <g id="Colour/Default-Colour">
                        <mask id="mask-2" fill="white">
                            <use xlink:href="#path-1"></use>
                        </mask>
                        <g id="Mask" fill-rule="nonzero"></g>
                        <g id="colour/neutral/chia" mask="url(#mask-2)" fill="#737373">
                            <g transform="translate(-24.000000, -24.000000)" id="Colour">
                                <rect x="0" y="0" width="64" height="64"></rect>
                            </g>
                        </g>
                    </g>
                </g>
            </g>
        </g>
    </g>
</svg>
